X: 1
T: Ellie's Jig
C: Murray Shoolbraid (1990)
R: jig
Z: John Chambers <jc:trillian.mit.edu>
Z: from a transcription by Terry Traub
N: Written in 1990
M: 6/8
L: 1/8
K: D
   f/e/ \
| "D"dAG FDF | "G"GBd "A"ecA | "D"d2A "Bm"FGA | "Em"GFG "A7"E2c \
| "D"dAG FDF | "G"GBd "A"ecA | "G"gag "D"fed | "A7"Adc "D"d2 :|
|: f \
| "D"a3 fed | "A7"cBA "D"d2A | "G"B2g "Bm"fed | "E7"cdB "A"A2A \
| "Bm"Bdf "Em"g2e | "A7"Ace "D"f2d | "G"BGg "D"fed | "A7"Adc "D"d2 :|
